X:1
T:El tiempo megavisión
T:El Tiempo en Megavisión
T:René Calderón
T:Julián Olivares Vergara
T:René Calderón. Megavisión.
T:René Calderón. Megavisión.
C:René Calderón
Z:René Calderón. Megavisión.
%%score { 1 | 2 }
L:1/8
Q:1/2=95
M:4/4
K:Ab
V:1 treble nm="Piano" snm="Pno."
V:2 bass 
V:1
"^A""^Cm" !fermata!E2 | [Gce]3 [Gce]3 z2 | [Gce]2 [Gce]2"^Bb" [FB__e]2 [FBe]2 | %3
"^Abaug" [EAc]3 [EAc]3 z2 | [EAc]2 [EAc]2"^Bb" [FB__e]2 [FBe]2 |"^Cm" [Gce]3 [Gce]3 z2 | %6
 [Gce]2 [Gce]2"^Bb" [FB__e]2 [FBe]2 |"^Abaug" [EAc]3 [EAc]3 z2 | %8
 [EAc]2 [EAc]2"^Bb" [FB__e]2 [FBe]2 || e6"^B" =de | f6 ef | g3 a3 b2 | a3 g3 f2 | e6 =de | f6 ef | %15
 g8- | g8 |:"^C" z Bc=d edce | z Bc=d edcd | z GBc =dcBd | z GBc =dcBc :: z cef gfeg | z cef gfef | %23
 z fbc' __e'c'be' | z fbc' __e'c'bc' :: z Bc=d edce | z Bc=d edcd | z GBc =dcBd | z GBc =dcBc :| %29
 z cef gfeg | z cef gfef | z fbc' __e'c'be' | z fbc' __e'c'bc' || z"^CODA" cef gfeg | z cef gfef | %35
 z fbc' __e'c'be' | z gb=d' b__b=e'_d' |] %37
V:2
 [G,C]2 | [G,,C,E,]3 [G,,C,E,]3 z2 | [G,,C,E,]2 [G,,C,E,]2 [F,,B,,__E,]2 [F,,B,,E,]2 | %3
 [E,,A,,C,]3 [E,,A,,C,]3 z2 | [E,,A,,C,]2 [E,,A,,C,]2 [F,,B,,__E,]2 [F,,B,,E,]2 | %5
 [G,,C,E,]3 [G,,C,E,]3 z2 | [G,,C,E,]2 [G,,C,E,]2 [F,,B,,__E,]2 [F,,B,,E,]2 | %7
 [E,,A,,C,]3 [E,,A,,C,]3 z2 | [E,,A,,C,]2 [E,,A,,C,]2 [F,,B,,__E,]2 [F,,B,,E,]2 || E,8 | F,8 | %11
 G,8 | A,8 | E,8 | F,8 | G,8- | G,8 |: C8 | A,8 | B,8 | G,8 :: C8 | A,8 | B,8 | G,8 :: C8 | A,8 | %27
 B,8 | G,8 :| C8 | A,8 | B,8 | G,8 || C8 | A,8 | B,8 | G,8 |] %37

